tools/download-figma-icons/icons/outlined-large/heat-station.svg

<svg width="64" height="65" viewBox="0 0 64 65" fill="none" xmlns="http://www.w3.org/2000/svg">
<path d="M54.4997 9.22124C48.7526 3.5465 41.0731 0.257474 33.003 0.0144877C24.9329 -0.228499 17.0697 2.59254 10.992 7.91124V2.48125C10.992 2.08343 10.8341 1.7019 10.553 1.42059C10.2719 1.13929 9.89068 0.981255 9.49315 0.981255C9.09562 0.981255 8.71437 1.13929 8.43327 1.42059C8.15218 1.7019 7.99426 2.08343 7.99426 2.48125V11.4812C7.99161 11.6799 8.02843 11.8771 8.10257 12.0614C8.17671 12.2457 8.28669 12.4134 8.42614 12.5548C8.56559 12.6963 8.73172 12.8085 8.91489 12.8852C9.09806 12.9618 9.29462 13.0013 9.49315 13.0012H18.4865C18.884 13.0012 19.2652 12.8432 19.5463 12.5619C19.8274 12.2806 19.9854 11.8991 19.9854 11.5012C19.9854 11.1034 19.8274 10.7219 19.5463 10.4406C19.2652 10.1593 18.884 10.0012 18.4865 10.0012H13.1904C17.448 6.32275 22.6857 3.96764 28.2613 3.22471C33.8369 2.48178 39.5079 3.38333 44.579 5.81881C49.65 8.25429 53.9006 12.1178 56.8095 16.9356C59.7184 21.7534 61.1591 27.3159 60.9549 32.9412C60.7781 36.0206 60.1345 39.0553 59.0464 41.9412C58.9734 42.13 58.9391 42.3316 58.9456 42.5339C58.952 42.7362 58.999 42.9352 59.0839 43.119C59.1687 43.3028 59.2896 43.4676 59.4394 43.6037C59.5891 43.7398 59.7647 43.8444 59.9557 43.9112C60.1261 43.9701 60.305 44.0005 60.4853 44.0012C60.7932 43.9997 61.093 43.9027 61.3436 43.7237C61.5941 43.5446 61.783 43.2921 61.8842 43.0012C63.0876 39.794 63.7952 36.4219 63.9827 33.0012C64.1278 28.5971 63.3602 24.2106 61.7281 20.118C60.0961 16.0254 57.635 12.3153 54.4997 9.22124Z" fill="black"/>
<path d="M54.4396 51.0012H45.4463C45.0488 51.0012 44.6675 51.1593 44.3864 51.4406C44.1053 51.7219 43.9474 52.1034 43.9474 52.5012C43.9474 52.8991 44.1053 53.2806 44.3864 53.5619C44.6675 53.8432 45.0488 54.0012 45.4463 54.0012H50.7524C45.2479 58.7382 38.164 61.2292 30.9085 60.979C23.653 60.7289 16.7571 57.756 11.5915 52.6512C8.84742 49.9626 6.67238 46.7487 5.19596 43.2009C3.71955 39.6532 2.97199 35.8443 2.99783 32.0013C3.05373 28.5837 3.69593 25.2012 4.89642 22.0013C4.9945 21.8113 5.05083 21.6025 5.06164 21.3888C5.07246 21.1752 5.0375 20.9618 4.95912 20.7628C4.88074 20.5639 4.76075 20.384 4.6072 20.2352C4.45364 20.0864 4.27007 19.9723 4.06881 19.9003C3.86754 19.8284 3.65323 19.8004 3.44025 19.8181C3.22727 19.8359 3.02055 19.899 2.83395 20.0033C2.64735 20.1075 2.48519 20.2505 2.35834 20.4227C2.2315 20.5948 2.1429 20.7921 2.0985 21.0013C0.767498 24.5186 0.0574532 28.2406 5.6319e-05 32.0013C-0.00782663 36.2007 0.811896 40.3605 2.41231 44.2426C4.01273 48.1246 6.36241 51.6528 9.3269 54.625C12.2914 57.5973 15.8125 59.9553 19.6887 61.5642C23.5648 63.1731 27.72 64.0012 31.9164 64.0012C39.6416 64.0068 47.1032 61.1906 52.9008 56.0812V61.5112C52.9008 61.909 53.0587 62.2906 53.3398 62.5719C53.6209 62.8532 54.0021 63.0112 54.3997 63.0112C54.7972 63.0112 55.1784 62.8532 55.4595 62.5719C55.7406 62.2906 55.8986 61.909 55.8986 61.5112V52.5112C55.9013 52.1185 55.7501 51.7404 55.4773 51.458C55.2045 51.1757 54.8319 51.0117 54.4396 51.0012Z" fill="black"/>
<path d="M32.9756 13.2812C32.6886 13.0702 32.3358 12.9684 31.9806 12.9941C31.6254 13.0198 31.2909 13.1711 31.0371 13.4212L30.7173 13.7212C29.2784 15.0812 25.9109 18.2711 26.1807 22.1611C26.3306 24.4111 27.6496 26.4511 30.0978 28.1611L35.7236 32.2111C40.3202 35.5011 39.2609 38.0911 39.231 38.2111C39.1176 38.4403 39.0642 38.6946 39.0759 38.9501C39.0875 39.2056 39.1639 39.454 39.2977 39.6719C39.4315 39.8898 39.6185 40.0701 39.841 40.1959C40.0636 40.3217 40.3144 40.3889 40.57 40.3911C40.9401 40.3908 41.2966 40.2517 41.5692 40.0011L41.889 39.7011C43.3279 38.3411 46.6954 35.1511 46.4356 31.2611C46.2857 29.0011 44.9667 26.9211 42.5185 25.1611L36.8827 21.1611C32.2961 17.8611 33.3453 15.2812 33.3753 15.1612C33.5412 14.851 33.592 14.4921 33.5189 14.148C33.4457 13.804 33.2533 13.4969 32.9756 13.2812ZM35.184 23.5611L40.8198 27.5611C42.5085 28.7711 43.4079 30.0611 43.4978 31.3711C43.4635 32.7989 42.9214 34.1675 41.9689 35.2311C41.0738 32.995 39.4968 31.0984 37.4623 29.8111L31.8365 25.8111C30.1477 24.5911 29.2484 23.3111 29.1585 22.0011C29.1919 20.584 29.7306 19.2255 30.6773 18.1711C31.5669 20.3877 33.1247 22.2718 35.134 23.5611H35.184Z" fill="black"/>
<path d="M23.2928 22.9111C23.0077 22.7016 22.6577 22.5997 22.3048 22.6235C21.9518 22.6473 21.6187 22.7952 21.3642 23.0411L21.0445 23.3511C19.6055 24.7111 16.238 27.8911 16.4978 31.7911C16.6477 34.0411 17.9667 36.0711 20.4149 37.7911L26.0507 41.8411C30.6373 45.1311 29.5881 47.7211 29.5581 47.7911C29.3827 48.1091 29.3286 48.48 29.4058 48.835C29.4829 49.1899 29.6862 49.5048 29.9778 49.7211C30.2373 49.9072 30.5479 50.0084 30.8672 50.0111C31.2425 49.999 31.5994 49.8454 31.8664 49.5811L32.1862 49.2711C33.6251 47.9211 36.9926 44.7311 36.7328 40.8411C36.5829 38.5811 35.2639 36.5511 32.8157 34.7911L27.1899 30.7911C22.5933 27.4911 23.6525 24.9011 23.6825 24.7911C23.8455 24.4812 23.8958 24.1241 23.8247 23.7812C23.7536 23.4382 23.5656 23.1306 23.2928 22.9111ZM25.5111 33.1911L31.137 37.1911C32.8257 38.4011 33.725 39.6811 33.815 41.0011C33.774 42.4137 33.2361 43.7665 32.2961 44.8211C31.401 42.585 29.824 40.6884 27.7895 39.4011L22.1636 35.4011C20.4749 34.1911 19.5755 32.9111 19.4856 31.5911C19.5187 30.1776 20.0495 28.8212 20.9845 27.7611C21.8866 30.0016 23.4703 31.9013 25.5111 33.1911Z" fill="black"/>
</svg>

<svg width="64" height="65" viewBox="0 0 64 65" fill="none" xmlns="http://www.w3.org/2000/svg"><path d="M54.5 9.221a31.962 31.962 0 0 0-43.508-1.31v-5.43a1.5 1.5 0 0 0-2.559-1.06 1.5 1.5 0 0 0-.439 1.06v9a1.5 1.5 0 0 0 1.5 1.52h8.992a1.498 1.498 0 0 0 1.06-2.56 1.498 1.498 0 0 0-1.06-.44H13.19A28.889 28.889 0 0 1 44.58 5.82a28.906 28.906 0 0 1 12.23 11.117 28.936 28.936 0 0 1 4.146 16.005 30.46 30.46 0 0 1-1.909 9 1.51 1.51 0 0 0 .91 1.97c.17.06.349.09.53.09a1.49 1.49 0 0 0 1.398-1 33.719 33.719 0 0 0 2.099-10A31.94 31.94 0 0 0 54.5 9.221Zm-.06 41.78h-8.994a1.499 1.499 0 0 0-1.06 2.56c.281.282.663.44 1.06.44h5.306a28.895 28.895 0 0 1-39.16-1.35 28.63 28.63 0 0 1-8.594-20.65 29.86 29.86 0 0 1 1.898-10 1.5 1.5 0 0 0-2.538-1.578 1.5 1.5 0 0 0-.26.578 32.48 32.48 0 0 0-2.098 11 31.96 31.96 0 0 0 9.327 22.624 31.914 31.914 0 0 0 22.59 9.376 31.703 31.703 0 0 0 20.984-7.92v5.43a1.5 1.5 0 0 0 1.499 1.5 1.498 1.498 0 0 0 1.499-1.5v-9a1.5 1.5 0 0 0-1.46-1.51Z" fill="currentColor"/><path d="M32.976 13.281a1.497 1.497 0 0 0-1.939.14l-.32.3c-1.439 1.36-4.806 4.55-4.536 8.44.15 2.25 1.469 4.29 3.917 6l5.626 4.05c4.596 3.29 3.537 5.88 3.507 6a1.51 1.51 0 0 0 1.339 2.18c.37 0 .727-.14 1-.39l.319-.3c1.439-1.36 4.806-4.55 4.547-8.44-.15-2.26-1.47-4.34-3.917-6.1l-5.636-4c-4.587-3.3-3.538-5.88-3.508-6a1.491 1.491 0 0 0-.4-1.88Zm2.208 10.28 5.636 4c1.688 1.21 2.588 2.5 2.678 3.81a6.002 6.002 0 0 1-1.53 3.86 11.448 11.448 0 0 0-4.506-5.42l-5.626-4c-1.688-1.22-2.588-2.5-2.677-3.81a5.943 5.943 0 0 1 1.518-3.83c.89 2.217 2.448 4.1 4.457 5.39h.05Zm-11.891-.65a1.498 1.498 0 0 0-1.929.13l-.32.31c-1.439 1.36-4.806 4.54-4.546 8.44.15 2.25 1.469 4.28 3.917 6l5.636 4.05c4.586 3.29 3.537 5.88 3.507 5.95a1.501 1.501 0 0 0 .42 1.93c.26.186.57.287.89.29a1.489 1.489 0 0 0 .998-.43l.32-.31c1.44-1.35 4.807-4.54 4.547-8.43-.15-2.26-1.47-4.29-3.917-6.05l-5.626-4c-4.597-3.3-3.538-5.89-3.508-6a1.51 1.51 0 0 0-.39-1.88Zm2.218 10.28 5.626 4c1.689 1.21 2.588 2.49 2.678 3.81a6.003 6.003 0 0 1-1.519 3.82 11.448 11.448 0 0 0-4.506-5.42l-5.626-4c-1.69-1.21-2.588-2.49-2.678-3.81a6.003 6.003 0 0 1 1.498-3.83 11.508 11.508 0 0 0 4.527 5.43Z" fill="currentColor"/></svg>
